X:1
T: Miss Watt of Mether Cluny's Reel
C:William Marshall
R:Reel
Q: 232
K:Bb
M:4/4
L:1/8
|:d|B2 dB fB dB|GF GB cB cd|B1/2B1/2B dB fB dB|eg fe dB Bd|
B2 dB fB dB|GF GB cB cd|B1/2B1/2B dB fB dB|eg fe dB BE|
DE1/2F1/2 B,F BF dB|GF GB cB cd|Bf df eg df|cB cd B1/2B1/2B BE|
DE1/2F1/2 B,F BF dB|GF GB cB cd|f1/2f1/2f gf bf dB eg|fe dB B:|
